X: 1
T: Lullaby for Kim
C: Earl Gaddis 1998
R: air
S: printed copy of unknown origin in Concord Slow Scottish Session collection
Z: 2015 John Chambers <jc:trillian.mit.edu>
M: 3/8
L: 1/8
K: G
[|\
"G"B4- Bd | "D"dA- A4 | "Em"G3 A Bc | "Bm"B6 |\
"C"z2 E2 F2 | "G"G2 A3 B | "A7"A2 E3 G | "D"F D3 D2 ||
"G"B4- Bd | "D"d4- dA | "Em"GA B3 c | "Bm"B4 F2 |\
"C"E2 F2 G2 | "G/b"G2 A2 B2 | "A7"B2 A2 G2 | "D"A4 d2 |]
[|\
"Em"g6 | "Em"e4 g2 | "Bm"f3 e dc | "G7"B2 c2 d2 |\
"C"e3 G G2 | "G/b"d2 G3 A | "Am7"B2 A2 G2 | "D7"A4 d2 ||
"Em"g2 f2 e2 | "Bm"f3 e d2 | "C"e2 G3 A | "G"B2 d3 B |\
"Am"c2 B2 A2 | "Em"B3 A G2 | "C"E2 G2 "D7"F2 | "G"G4 |]
